svg/emoji_u23eb.svg

<svg width="128" height="128" viewBox="0 0 128 128" fill="none" xmlns="http://www.w3.org/2000/svg">
<path d="M116.46 4H12.46C8.03996 4 4.45996 7.58 4.45996 12V116C4.45996 120.42 8.03996 124 12.46 124H116.46C120.88 124 124.46 120.42 124.46 116V12C124.46 7.58 120.88 4 116.46 4Z" fill="#427687" style="fill:#427687;fill:color(display-p3 0.2588 0.4627 0.5294);fill-opacity:1;"/>
<path d="M110.16 4H11.96C7.82998 4.03 4.48998 7.37 4.45998 11.5V109.4C4.44998 113.54 7.79998 116.89 11.94 116.9C11.95 116.9 11.95 116.9 11.96 116.9H110.06C114.2 116.91 117.55 113.56 117.56 109.42C117.56 109.41 117.56 109.41 117.56 109.4V11.5C117.65 7.45 114.43 4.09 110.38 4C110.31 4 110.23 4 110.16 4Z" fill="#8CAFBF" style="fill:#8CAFBF;fill:color(display-p3 0.5490 0.6863 0.7490);fill-opacity:1;"/>
<path opacity="0.75" d="M40.1601 12.8999C40.1601 10.5999 38.5601 9.89988 29.3601 10.1999C21.6601 10.4999 17.8601 11.3999 15.5601 14.1999C13.2601 16.9999 12.6601 22.6999 12.5601 29.4999C12.5601 34.2999 12.5601 38.7999 15.0601 38.7999C18.4601 38.7999 18.4601 30.8999 21.2601 26.4999C26.6601 17.7999 40.1601 15.8999 40.1601 12.8999Z" fill="#A0C8D6" style="fill:#A0C8D6;fill:color(display-p3 0.6275 0.7843 0.8392);fill-opacity:1;"/>
<path d="M67.7598 66.0001H90.0598C91.1898 66.1301 92.2098 65.3101 92.3398 64.1801C92.3898 63.7301 92.2898 63.2801 92.0598 62.9001L66.4598 23.0001C65.6998 21.9001 64.1798 21.6201 63.0798 22.3801C62.8398 22.5501 62.6298 22.7601 62.4598 23.0001L36.7598 62.9001C36.1798 63.8801 36.4998 65.1401 37.4798 65.7201C37.8698 65.9501 38.3198 66.0501 38.7598 66.0001H61.0598L36.6598 103C35.7598 104.4 36.8598 106 38.6598 106H90.1598C91.9598 106 93.0598 104.3 92.1598 103L67.7598 66.0001Z" fill="#FAFAFA" style="fill:#FAFAFA;fill:color(display-p3 0.9804 0.9804 0.9804);fill-opacity:1;"/>
</svg>

<?xml version="1.0" encoding="utf-8"?>
<!-- Generator: Adobe Illustrator 25.2.3, SVG Export Plug-In . SVG Version: 6.00 Build 0)  -->
<svg version="1.1" id="Layer_1" xmlns="http://www.w3.org/2000/svg" xmlns:xlink="http://www.w3.org/1999/xlink" x="0px" y="0px"
	 viewBox="0 0 128 128" style="enable-background:new 0 0 128 128;" xml:space="preserve">
<g>
	<path style="fill:#F77E00;" d="M116.46,4h-104c-4.42,0-8,3.58-8,8v104c0,4.42,3.58,8,8,8h104c4.42,0,8-3.58,8-8V12
		C124.46,7.58,120.88,4,116.46,4z"/>
	<path style="fill:#FF9800;" d="M110.16,4h-98.2c-4.13,0.03-7.47,3.37-7.5,7.5v97.9c-0.01,4.14,3.34,7.49,7.48,7.5
		c0.01,0,0.01,0,0.02,0h98.1c4.14,0.01,7.49-3.34,7.5-7.48c0-0.01,0-0.01,0-0.02V11.5c0.09-4.05-3.13-7.41-7.18-7.5
		C110.31,4,110.23,4,110.16,4z"/>
	<path style="opacity:0.75;fill:#FFBD52;enable-background:new    ;" d="M40.16,12.9c0-2.3-1.6-3-10.8-2.7c-7.7,0.3-11.5,1.2-13.8,4
		s-2.9,8.5-3,15.3c0,4.8,0,9.3,2.5,9.3c3.4,0,3.4-7.9,6.2-12.3C26.66,17.8,40.16,15.9,40.16,12.9z"/>
	<path style="fill:#FAFAFA;" d="M67.76,66h22.3c1.13,0.13,2.15-0.69,2.28-1.82c0.05-0.45-0.05-0.9-0.28-1.28L66.46,23
		c-0.76-1.1-2.28-1.38-3.38-0.62c-0.24,0.17-0.45,0.38-0.62,0.62l-25.7,39.9c-0.58,0.98-0.26,2.24,0.72,2.82
		c0.39,0.23,0.84,0.33,1.28,0.28h22.3l-24.4,37c-0.9,1.4,0.2,3,2,3h51.5c1.8,0,2.9-1.7,2-3L67.76,66z"/>
</g>
</svg>
